src/assets/fight/heart.svg

<svg xmlns="http://www.w3.org/2000/svg" width="30" height="30"><path d="M24 8V6h-2V4h-2v2h-2v2h-2v2h-2V8h-2V6h-2V4H8v2H6v2H4v10h2v2h2v2h2v2h2v2h6v-2h2v-2h2v-2h2v-2h2V8z" fill="currentColor"/></svg>

<svg xmlns="http://www.w3.org/2000/svg" viewBox="0 0 30 30" width="30px" height="30px">
    <path d="M24 8L24 6 22 6 22 4 20 4 20 6 18 6 18 8 17 8 16 8 16 10 14 10 14 8 13 8 12 8 12 6 10 6 10 4 8 4 8 6 6 6 6 8 4 8 4 10 4 18 6 18 6 20 8 20 8 22 10 22 10 24 12 24 12 26 15 26 18 26 18 24 20 24 20 22 22 22 22 20 24 20 24 18 26 18 26 10 26 8z"
          fill="currentColor"/>
</svg>
